X:1
T: Blackheath
N:
C:
S:
A:
O:
R:
M:4/4
K:Am
I:speed 200
%W: A1
% voice 1 (1 lines, 42 notes)
K:Am
M:4/4
L:1/16
A2 B2 |c4 e4 e4 a4 |e2 d2 e2 f2 e4 A2 B2 |c4 e4 e4 a4 |b2 a2 b2 c'2 b4 e4 |a4 b4 c'4 g4 |a2 g2 f2 e2 d2 e2 f2 g2 |e4 c4 d4 B4 |c12 A2 B2 |
%W: A2
% voice 1 (1 lines, 42 notes)
c4 e4 e4 a4 |e2 d2 e2 f2 e4 A2 B2 |c4 e4 e4 a4 |b2 a2 b2 c'2 b4 e4 |a4 b4 c'4 g4 |a2 g2 f2 e2 d2 e2 f2 g2 |e4 c4 d4 B4 |c8 z2 B2 c2 d2 |
%W: B1
% voice 1 (1 lines, 39 notes)
e4 B4 B4 e2 d2 |^c2 d2 c2 B2 A4 e4 |a4 e4 e4 a2 g2 |^f2 g2 f2 e2 d4 f4 |g4 d4 a4 d4 |b2 a2 b2 c'2 b4 a2 g2 |^f4 g4 g4 f4 |g12 g4 |
%W: B2
% voice 1 (1 lines, 38 notes)
c'4 e4 e4 f2 g2 |a2 g2 f2 e2 d4 e2 f2 |g4 c4 c4 d2 e2 |f2 e2 d2 c2 B4 c2 d2 |e4 c4 ^f4 d4 |^g4 e4 a4 b2 c'2 |b4 a4 b4 ^g4 |a12 ||
